src/css/fonts/SVGs/iota_icons/wasp_icon.svg

<svg width="48" height="48" viewBox="0 0 48 48" fill="none" xmlns="http://www.w3.org/2000/svg">
<path fill-rule="evenodd" clip-rule="evenodd" d="M24.8763 13.0376C25.3005 13.0376 25.6917 13.1584 26.0211 13.3697C26.1658 13.0811 26.3301 12.7979 26.5146 12.5212C27.0939 11.6528 27.7055 11.1105 28.3931 10.6139C29.8664 9.62079 31.8789 8.99161 33.0094 9.00008C34.1399 9.00856 34.2802 11.0381 32.9111 10.9863C30.2042 10.8839 27.9837 11.3909 26.342 13.6226C26.7693 14.0319 27.0327 14.6241 27.0327 15.295C27.0327 16.4146 26.2993 17.3149 25.2943 17.5122C25.7445 17.711 26.1528 18.0046 26.6029 18.3426C26.6239 18.3623 26.6988 18.4237 26.8183 18.5218C27.9624 19.4608 33.1999 23.7595 34.5438 27.0391C35.9653 30.4412 33.6406 33.4681 33.3134 33.8942C33.2989 33.913 33.2883 33.9267 33.2822 33.9352C32.8797 34.4744 31.9131 34.4146 31.6495 33.7959L26.4765 22.6123C26.2645 22.8187 26.0193 22.9981 25.7481 23.1444C25.3716 23.4694 25.1425 23.9221 25.1425 24.289C25.1425 24.6933 25.285 24.7967 25.9226 25.2594L26.0217 25.3315C26.0601 25.3593 26.0813 25.3856 26.0873 25.4104C26.9438 26.02 27.5487 27.0072 27.6815 28.1872C27.6836 28.2052 27.6852 28.2233 27.6865 28.2415C27.8443 30.5284 27.8612 34.0014 27.0905 36.5629C27.0869 36.5749 27.0831 36.5868 27.0792 36.5987C26.7648 37.5391 26.3909 38.3351 25.9427 38.9181C25.4996 39.4943 24.8701 40 24.0634 40C23.2568 40 22.6273 39.4943 22.1842 38.9181C21.7387 38.3387 21.3667 37.5488 21.0535 36.6159C20.106 34.0235 20.1267 30.5373 20.3634 28.2255C20.455 26.801 21.2889 25.7043 22.377 25.1494C22.9023 24.7767 22.9734 24.6589 22.9734 24.289C22.9734 23.8699 22.4362 23.3467 21.9446 23.0018C21.9139 22.9803 21.9045 22.9602 21.9137 22.9415C21.773 22.8432 21.6415 22.735 21.5208 22.6181L16.3505 33.7959C16.0869 34.4146 15.1203 34.4744 14.7178 33.9352C14.7117 33.9268 14.7013 33.9132 14.687 33.8946L14.6866 33.8942C14.3594 33.4681 12.0347 30.4412 13.4562 27.0391C14.8487 23.6408 20.3434 19.1786 21.2801 18.4179C21.319 18.3863 21.3501 18.3611 21.3726 18.3426C21.702 18.0727 22.1755 17.7435 22.7248 17.5157C21.7102 17.3259 20.9677 16.4215 20.9677 15.295C20.9677 14.6186 21.2354 14.0223 21.669 13.6126C20.028 11.3894 17.8101 10.8841 15.1072 10.9863C13.7382 11.0381 13.8785 9.00856 15.009 9.00009C16.1395 8.99161 18.152 9.62079 19.6253 10.6139C20.3128 11.1105 20.9244 11.6528 21.5037 12.5212C21.6864 12.7951 21.8492 13.0755 21.9929 13.3611C22.3195 13.1551 22.7058 13.0376 23.1242 13.0376L24.8763 13.0376ZM22.7819 19.8916L22.8755 19.6893C23.0904 19.33 23.5246 19.0701 23.9957 19.0701C24.6636 19.0701 25.2573 19.5925 25.2573 20.1803V20.6374C25.2573 21.2251 24.6636 21.7476 23.9957 21.7476C23.3278 21.7476 22.7341 21.2251 22.7341 20.6374V20.1803C22.7341 20.0815 22.7508 19.9845 22.7819 19.8916ZM32.6885 27.7357C32.0947 26.2728 30.5362 24.5314 28.9777 22.9989L32.6885 31.0792C32.9853 30.1737 33.208 28.9198 32.6885 27.7357ZM19.0223 22.9989C17.4638 24.5314 15.9053 26.2728 15.3115 27.7357C14.792 28.9198 15.0147 30.1737 15.3115 31.0792L19.0223 22.9989ZM24.9663 14.8885C25.1149 14.8885 25.2635 15.0918 25.2635 15.2951C25.2635 15.4983 25.1149 15.7016 24.9663 15.7016L23.0342 15.7016C22.8855 15.7016 22.7369 15.4983 22.7369 15.2951C22.7369 15.0918 22.8855 14.8885 23.0342 14.8885L24.9663 14.8885ZM25.5399 32.4755C25.5824 31.7752 25.5955 31.0652 25.5878 30.3808L24.4735 31.1298C24.185 31.3238 23.8149 31.3238 23.5264 31.1298L22.4162 30.3835C22.4006 31.0678 22.4131 31.778 22.4632 32.4776L24 33.5108L25.5399 32.4755ZM25.2551 34.8476C25.1883 35.189 25.1099 35.5155 25.0186 35.8214C24.7502 36.6201 24.4831 37.1307 24.2604 37.4203C24.1699 37.5381 24.1038 37.5987 24.0634 37.629C24.0231 37.5987 23.957 37.5381 23.8665 37.4203C23.6421 37.1286 23.3727 36.6125 23.1022 35.8034C23.0984 35.7918 23.0943 35.7803 23.0901 35.7688C22.9897 35.4959 22.9022 35.2057 22.8265 34.9024L23.5264 35.373C23.8149 35.5669 24.185 35.5669 24.4735 35.373L25.2551 34.8476ZM24 29.2676L25.4798 28.2728C25.3198 27.596 24.7486 27.0977 24.0245 27.0977C23.2185 27.0977 22.6424 27.6728 22.5516 28.2939L24 29.2676Z" fill="black"/>
</svg>

<svg xmlns="http://www.w3.org/2000/svg" viewBox="0 0 48 48">
  <path fill-rule="evenodd" clip-rule="evenodd" d="M24.876 13.038c.424 0 .816.12 1.145.332a7.96 7.96 0 0 1 .494-.849c.579-.868 1.19-1.41 1.878-1.907C29.866 9.62 31.88 8.992 33.01 9c1.13.009 1.271 2.038-.098 1.986-2.707-.102-4.927.405-6.569 2.637.427.409.69 1.001.69 1.672 0 1.12-.733 2.02-1.738 2.217.45.199.859.493 1.309.83.02.02.096.082.215.18 1.144.939 6.382 5.238 7.726 8.517 1.421 3.402-.903 6.43-1.23 6.855l-.032.041c-.402.54-1.369.48-1.632-.14l-5.173-11.183a3.266 3.266 0 0 1-.729.532c-.376.325-.606.778-.606 1.145 0 .404.143.508.78.97l.1.072c.038.028.06.055.065.08.857.609 1.462 1.596 1.595 2.776l.005.054c.157 2.287.174 5.76-.597 8.322a1.486 1.486 0 0 1-.01.036c-.315.94-.69 1.736-1.137 2.32C25.5 39.493 24.87 40 24.063 40c-.806 0-1.436-.506-1.879-1.082-.445-.58-.817-1.37-1.13-2.302-.948-2.593-.927-6.079-.69-8.39a3.68 3.68 0 0 1 2.013-3.077c.525-.372.596-.49.596-.86 0-.42-.537-.942-1.028-1.287-.031-.022-.04-.042-.031-.06a3.194 3.194 0 0 1-.393-.324l-5.17 11.178c-.264.619-1.23.678-1.633.14a2.264 2.264 0 0 0-.031-.041c-.328-.427-2.652-3.454-1.23-6.856 1.392-3.398 6.886-7.86 7.823-8.621l.093-.075c.329-.27.802-.6 1.352-.827-1.015-.19-1.757-1.094-1.757-2.221 0-.676.267-1.273.701-1.682-1.641-2.224-3.859-2.729-6.562-2.627-1.369.052-1.228-1.977-.098-1.986 1.13-.008 3.143.62 4.616 1.614.688.496 1.3 1.039 1.879 1.907.182.274.345.554.489.84a2.108 2.108 0 0 1 1.131-.323h1.752Zm-2.094 6.854.093-.203c.215-.359.65-.619 1.12-.619.669 0 1.262.523 1.262 1.11v.457c0 .588-.593 1.11-1.261 1.11-.668 0-1.262-.522-1.262-1.11v-.457c0-.099.017-.195.048-.288Zm9.906 7.844c-.593-1.463-2.152-3.205-3.71-4.737l3.71 8.08c.297-.905.52-2.16 0-3.343Zm-13.666-4.737c-1.558 1.532-3.117 3.274-3.71 4.737-.52 1.184-.297 2.438 0 3.343l3.71-8.08Zm5.944-8.11c.149 0 .297.203.297.406s-.148.407-.297.407h-1.932c-.148 0-.297-.204-.297-.407 0-.203.149-.406.297-.406h1.932Zm.574 17.586c.042-.7.056-1.41.048-2.094l-1.114.749a.843.843 0 0 1-.948 0l-1.11-.746a22.64 22.64 0 0 0 .047 2.094L24 33.51l1.54-1.036Zm-.285 2.373c-.067.341-.145.668-.236.973-.269.8-.536 1.31-.759 1.6a1.09 1.09 0 0 1-.197.208c-.04-.03-.106-.09-.197-.209-.224-.291-.493-.808-.764-1.617a8.42 8.42 0 0 1-.276-.901l.7.471a.844.844 0 0 0 .948 0l.781-.525ZM24 29.268l1.48-.995c-.16-.677-.731-1.175-1.456-1.175-.806 0-1.382.575-1.472 1.196l1.448.974Z"/>
</svg>
